!!! OTL: Berkowitz454
!!! Chapter: 1
!!! Section: IV
!!! Page: 113
!!! Mode: 
!!! Encoder: DJB
**kern
*staff1
*I"Piano
=1-
*clefG2
*k[f#]
*G:
*M6/8
4.r
8r
8r
16g/LL
16a/JJ
=2
8.b/L
16a#/K
8b/J
4d/
8c/
=3
8.a/L
16g#/K
8a/J
4c/
8B/
=4
8.g/L
16f#/K
8g/J
4A/
8f#/
=5
8g/L
8a/
8a#/J
8b\
8r
16b\LL
16cc\JJ
=6
8.dd\L
16cc#\K
8dd\J
4fn/
8e/
=7
!!linebreak:original
8.cc\L
16b\K
8cc\J
4e-/
8d/
=8
8.b/L
16a#/K
8b/J
8c#/L
8d/
8b/J
=9
8.a/L
16a#/K
8b/J
8g/
4r
==
*-
